X:1
T:Hartsough, 87.87 D
T:Lewis Hartsough (1828-1919)
T:Hartsough, 87.87 D
T:Public Domain
C:Lewis Hartsough (1828-1919)
Z:Public Domain
%%score ( 1 2 ) ( 3 4 )
L:1/8
M:3/4
K:Eb
V:1 treble 
V:2 treble 
V:3 bass 
V:4 bass 
V:1
 E>[EF] | [EG]3 E [EG][EA] | [EB]2 [GB]2 [Ec]>[Ec] | [EB]3 [Ec] [EB][EG] | [DF]4 E>[EF] | %5
 [EG]3 E [EG][FA] | [GB]2 [GB]2 [Ae]>[Ac] | [GB]2 [Ac]2 [EG]>[DF] | E4 [EG]>[FA] | %9
 [GB]3 [EG] [Ec][EB] | (BA) [DA]2 [FA]>[EG] | [DF]3 [DF] [EG][C=A] | [DB]4 E>[EF] | %13
 [EG]3 E [EG][EA] | [EB]2 [GB]2 [ce]>[Ac] | [GB]2 [Ac]2 [EG]>[DF] | E4 |] %17
V:2
 E3/2 x/ | x3 E x2 | x6 | x6 | x4 E3/2 x/ | x3 E x2 | x6 | x6 | E4 x2 | x6 | D2 x4 | x6 | %12
 x4 E3/2 x/ | x3 E x2 | x6 | x6 | E4 |] %17
V:3
 [E,G,]>[E,A,] | [E,B,]3 [E,G,] [E,B,][E,C] | [E,G,]2 [E,G,]2 A,>A, | [G,B,]3 A, [G,B,][E,B,] | %4
 [B,,B,]4 [E,G,]>[E,A,] | [E,B,]3 [E,G,] [E,B,][E,B,] | [E,E]2 [E,E]2 [CE]>[A,E] | %7
 [B,E]2 [A,E]2 B,>[B,,A,] | [E,G,]4 [E,B,]>[E,B,] | [E,B,]3 [E,B,] A,[G,B,] | %10
 (F,B,,) [B,,B,]2 [B,,D,]>[B,,E,] | [B,,B,]3 [B,,B,] [E,B,]F, | [B,,F,]4 [E,G,]>[E,A,] | %13
 [E,B,]3 [E,G,] [E,B,][E,C] | [E,G,]2 [E,E]2 [A,,E]>[A,,E] | E_D [A,,C]2 [B,,B,]>[B,,A,] | %16
 [E,G,]4 |] %17
V:4
 x2 | x6 | x4 A,>A, | x3 A, x2 | x6 | x6 | x6 | x4 B,3/2 x/ | x6 | x4 A, x | B,2 x4 | x5 F, | x6 | %13
 x6 | x6 | E,2 x4 | x4 |] %17

